app/img/icons/ic--bar.svg

<svg xmlns="http://www.w3.org/2000/svg" preserveAspectRatio="xMidYMid" width="27.25" height="29.969" viewBox="0 0 27.25 29.969"><defs><style>.cls-1{fill:#fff;fill-rule:evenodd}</style></defs><path d="M12.564 15.545L.312 1.968C-.147 1.454-.07.698.522.279c.229-.181.525-.267.83-.267h24.544c.754 0 1.356.533 1.356 1.201 0 .318-.124.601-.373.824L14.666 15.554a.858.858 0 0 1-.23.206v11.785h7.105c.735 0 1.337.549 1.337 1.218 0 .652-.602 1.208-1.337 1.208H5.717c-.745 0-1.337-.556-1.337-1.208 0-.669.592-1.218 1.337-1.218h7.105V15.76l-.038-.025a4.873 4.873 0 0 1-.22-.19zM5.861 4.283h15.536l1.691-1.861H4.17l1.691 1.861zM20.08 5.742H7.187l6.437 7.144 6.456-7.144zm-4.909 1.064c-.86 0-1.527.617-1.527 1.363 0 .755.667 1.364 1.527 1.364.821 0 1.499-.609 1.499-1.364 0-.746-.678-1.363-1.499-1.363z" class="cls-1"/></svg>

<svg xmlns="http://www.w3.org/2000/svg" xmlns:xlink="http://www.w3.org/1999/xlink" preserveAspectRatio="xMidYMid" width="27.25" height="29.969" viewBox="0 0 27.25 29.969">
  <defs>
    <style>
      .cls-1 {
        fill: #fff;
        fill-rule: evenodd;
      }
    </style>
  </defs>
  <path d="M12.564,15.545 L0.312,1.968 C-0.147,1.454 -0.070,0.698 0.522,0.279 C0.751,0.098 1.047,0.012 1.352,0.012 L1.352,0.012 L25.896,0.012 C26.650,0.012 27.252,0.545 27.252,1.213 C27.252,1.531 27.128,1.814 26.879,2.037 L14.666,15.554 C14.598,15.640 14.522,15.708 14.436,15.760 L14.436,27.545 L21.541,27.545 C22.276,27.545 22.878,28.094 22.878,28.763 C22.878,29.415 22.276,29.971 21.541,29.971 L5.717,29.971 C4.972,29.971 4.380,29.415 4.380,28.763 C4.380,28.094 4.972,27.545 5.717,27.545 L12.822,27.545 L12.822,15.760 L12.784,15.735 C12.708,15.674 12.630,15.605 12.564,15.545 L12.564,15.545 ZM5.861,4.283 L5.861,4.283 L21.397,4.283 L23.088,2.422 L4.170,2.422 L5.861,4.283 L5.861,4.283 ZM20.080,5.742 L20.080,5.742 L7.187,5.742 L13.624,12.886 L20.080,5.742 L20.080,5.742 ZM15.171,6.806 L15.171,6.806 C14.311,6.806 13.644,7.423 13.644,8.169 C13.644,8.924 14.311,9.533 15.171,9.533 C15.992,9.533 16.670,8.924 16.670,8.169 C16.670,7.423 15.992,6.806 15.171,6.806 L15.171,6.806 Z" class="cls-1"/>
</svg>
